X:1
T:Drizzle Begone
C:copyright 1997 Kaubells
R:Reel
E:14
M:C
K:Am
E|{f}"Am"e2 ed c2 Bc|"Em"d2 E2 {F}E2 (3BcB|"Dm"AFAB c2 (3BcB|"Am"A2 E2 {F}E2 C2|*
{f}"Am"e2 ed c2 Bc|"Em"d2 E2 {F}E2 (3BcB|"Dm"AB c2 F2>B2|1"...Am"A6 E2:|2"...Am"A6 "(G7)"G2:|*
"C"cBcd e2dc|"G"Bcd2 G2 (3BcB|"F"AFAB c2A2|"G7"BABc d2 G2|*
"C"cBcd e2dc|"G"Bcd2 G2 (3BcB|"F"AB c2 "G(7)"B2 d2|1"...C"c6 G2:|2"...C"c4 "E7"z2 E2:|*
T: Last time through:  Stop half-way through first ending shown just above.
